!!!COM:	Bach, Johann Sebastian
!!!CDT:	1685/02/21/-1750/07/28/
!!!OTL@@DE:	Wer nur den lieben Gott l&auml;&szlig;t walten
!!!SCT:	BWV 84/5
!!!PC#:	112
!!!AGN:	chorale
**kern	**kern	**kern	**kern
*ICvox	*ICvox	*ICvox	*ICvox
*Ibass	*Itenor	*Ialto	*Isoprn
*I"Bass	*I"Tenor	*I"Alto	*I"Soprano
*>[A,A,B]	*>[A,A,B]	*>[A,A,B]	*>[A,A,B]
*>norep[A,B]	*>norep[A,B]	*>norep[A,B]	*>norep[A,B]
*>A	*>A	*>A	*>A
*clefF4	*clefGv2	*clefG2	*clefG2
*k[f#c#]	*k[f#c#]	*k[f#c#]	*k[f#c#]
*b:	*b:	*b:	*b:
*M4/4	*M4/4	*M4/4	*M4/4
*met(c)	*met(c)	*met(c)	*met(c)
*MM100	*MM100	*MM100	*MM100
4BB	8BL	8dL	4f#
.	8c#J	8eJ	.
=1	=1	=1	=1
4B	4d	4f#	4b
4A#	4c#	4f#	4cc#
4B	4B	4f#	4dd
4F#	4A#X	8f#L	4cc#
.	.	8eJ	.
=2	=2	=2	=2
4G	4B	4d	4b
4E	8eL	4g	4cc#
.	8dJ	.	.
2F#	2c#	2f#	2a#
=3	=3	=3	=3
2FF#;	2A#;	2c#;	2f#;
4r	4ry	4ry	4r
4F#	4c#	4f#	4a
=4	=4	=4	=4
4BB	4d	4f#	4a
4C#	4AnX	4e	4g
4D	4A	4d	4f#
8GL	4B	4d	4b
8F#J	.	.	.
=5	=5	=5	=5
4E	4c#	4g	4b
4F#	4c#	4f#	4a#
4BB;	4d;	4f#;	4b;
=:|!	=:|!	=:|!	=:|!
*>B	*>B	*>B	*>B
4F#	4f#	4a#	4cc#
=6	=6	=6	=6
4B	4f#	4b	4dd
4c#	4e	4anX	4ee
8dL	4d	4a	4ff#
8c#	.	.	.
8B	4d	4b	4ff#
8AJ	.	.	.
=7	=7	=7	=7
4G	4d	4b	4.ee
4A	4c#	4a	.
.	.	.	8dd
4D;	4f#;	4a;	4dd;
4d	4d	4a	4ff#
=8	=8	=8	=8
4c#	4e	4a#	4ee
4B	4f#	4b	4dd
8EL	8gL	8bL	4cc#
8F#J	8f#J	8a#J	.
4G	8f#L	4b	8bL
.	8eJ	.	8cc#J
=9	=9	=9	=9
8F#L	4.f#	4b	4dd
8EJ	.	.	.
4F#	.	4a#	4cc#
.	8e	.	.
4BB;	4d#;	4f#;	4b;
==	==	==	==
*-	*-	*-	*-
!!!hum2abc: -Q ''
!!!title: @{PC#}. @{OTL@@DE}
!!!YOR1: 371 vierstimmige Choralges&auml;nge von Johann Sebastian Bach, 
!!!YOR2: 4th ed. by Alfred D&ouml;rffel (Leipzig: Breitkopf und H&auml;rtel, 
!!!YOR2: c.1875). 178 pp. Plate "V.A.10".  reprint: J.S. Bach, 371 Four-Part 
!!!YOR4: Chorales (New York: Associated Music Publishers, Inc., c.1940).
!!!SMS: B&H, 4th ed, Alfred D&ouml;rffel, c.1875, plate V.A.10
!!!EED:  Craig Stuart Sapp
!!!EEV:  2009/05/22
